icons/save-as-16.svg

<svg id="icons" xmlns="http://www.w3.org/2000/svg" viewBox="0 0 16 16"><defs><style>.cls-1{fill:none;}</style></defs><path d="M5,10H7.65723l1-1H4v5H2V1.991l2,.001V6A.99947.99947,0,0,0,5,7h5.65717L12,5.65717V1.991L14,4v.95447a2.00859,2.00859,0,0,1,.97537.54547l.01563.01562V4a.98241.98241,0,0,0-.284-.707l-2-2A.99465.99465,0,0,0,12,1H2A.99951.99951,0,0,0,1,2V14a.99947.99947,0,0,0,1,1H5.15c.00873-.02344.00891-.0481.019-.07129L5.56677,14H5ZM8,2H9V4H8ZM5,2H7V5h3V2h1V6H5Zm9,10.14209,1-.99982V14a.99947.99947,0,0,1-1,1H11.01013l.05237-.02246a.99348.99348,0,0,0,.31348-.21192L12.14172,14H14ZM15.69183,7.622,14.278,6.20813a.96532.96532,0,0,0-1.38488-.02966l-5.05194,5.052L6.08545,15.3266a.37137.37137,0,0,0,.48761.48767l4.09619-1.75574,3.6073-3.60821-.00055-.0011L15.7215,9.0069A.96534.96534,0,0,0,15.69183,7.622ZM7.62433,14.2757,8.17847,12.982l.73919.7392Zm2.33813-.924L8.54852,11.93726l3.008-3.008,1.41333,1.41461ZM14.76825,8.546,13.6778,9.63641,12.26361,8.22217,13.354,7.13177a.30651.30651,0,0,1,.43335,0l.9809.9809a.30628.30628,0,0,1,0,.43329Z"/><rect class="cls-1" width="16" height="16"/></svg>

<svg xmlns="http://www.w3.org/2000/svg" viewBox="0 0 16 16"><path d="M5 10h2.657l1-1H4v5H2V1.991l2 .001V6a1 1 0 0 0 1 1h5.657L12 5.657V1.991L14 4v.954a2.009 2.009 0 0 1 .975.546l.016.016V4a.982.982 0 0 0-.284-.707l-2-2A.995.995 0 0 0 12 1H2a1 1 0 0 0-1 1v12a1 1 0 0 0 1 1h3.15c.009-.023.009-.048.019-.071L5.567 14H5zm3-8h1v2H8zM5 2h2v3h3V2h1v4H5zm9 10.142l1-1V14a1 1 0 0 1-1 1h-2.99l.053-.022a.993.993 0 0 0 .313-.212l.766-.766H14zm1.692-4.52l-1.414-1.414a.965.965 0 0 0-1.385-.03L7.841 11.23l-1.756 4.097a.371.371 0 0 0 .488.487l4.096-1.755 3.608-3.609h-.001l1.446-1.443a.965.965 0 0 0-.03-1.385zm-8.068 6.654l.554-1.294.74.74zm2.338-.924L8.55 11.937l3.008-3.008 1.413 1.415zm4.806-4.806l-1.09 1.09-1.414-1.414 1.09-1.09a.307.307 0 0 1 .433 0l.981.98a.306.306 0 0 1 0 .434z"/><path fill="none" d="M0 0h16v16H0z"/></svg>
